X: 30274
T: Old Lord Gordon's
R: reel
M: 4/4
K: Dmajor
AD~D2 ADBD|AD~D2 AG (3FGA|BE~E2 BEcE|BE~E2 BAFA|
dcdf ecdA|~A2FA D2 (3ABc|dBcA BFAF|EFGA BcdB|
AD~D2 ADBD|AD~D2 AG (3FGA|BE~E2 cE~E2|dE~E2 BAFA|
dgfd ecdA|~A2FA D2 (3ABc|dBcA BFAF|EFGA Bcdg||
fadg fadg|(3fgf dg faaf|g2ef ~g3e|dfed BAFA|
dgfd ecdB|AF~F2 ABdg|(3fga ec dBAF|EFGA Bcdz|
a2fd adfd|adfd faaf|g2ef ~g3a|~b3a bgeg|
bgBc ~d3z|fedB ABdg|fdec dBAF|EFGA BcdB||

